Source Code/mun/assets/flags/JOR.svg

<svg viewBox="0 0 40.5 40.5" xmlns="http://www.w3.org/2000/svg"><path d="m39.34 13.5h-38.18a16.9 16.9 0 0 1 1-2.31 20.24 20.24 0 0 1 37.18 2.31z"/><path d="m40.5 20.25a20 20 0 0 1 -1.16 6.75h-38.18a20.22 20.22 0 0 1 0-13.5h38.18a20 20 0 0 1 1.16 6.75z" fill="#fff"/><path d="m39.34 27a20.24 20.24 0 0 1 -37.19 2.31 16.9 16.9 0 0 1 -1-2.31z" fill="#007a3d"/><path d="m20.25 20.25-13.5 6.75-4.6 2.31a16.9 16.9 0 0 1 -1-2.31 20.22 20.22 0 0 1 0-13.5 16.9 16.9 0 0 1 1-2.31l4.6 2.31z" fill="#ce1126"/><path d="m5.75 17.52.62 1.58 1.63-.5-.85 1.47 1.4.96-1.68.26.13 1.69-1.25-1.15-1.25 1.15.13-1.69-1.68-.26 1.4-.96-.85-1.47 1.63.5z" fill="#fff"/></svg>

<svg xmlns="http://www.w3.org/2000/svg" viewBox="0 0 40.5 40.5"><defs><style>.cls-1{fill:#fff;}.cls-2{fill:#007a3d;}.cls-3{fill:#ce1126;}</style></defs><g id="Ebene_2" data-name="Ebene 2"><g id="Ńëîé_1" data-name="Ńëîé 1"><path d="M39.34,13.5H1.16a16.9,16.9,0,0,1,1-2.31A20.24,20.24,0,0,1,39.34,13.5Z"/><path class="cls-1" d="M40.5,20.25A20,20,0,0,1,39.34,27H1.16a20.22,20.22,0,0,1,0-13.5H39.34A20,20,0,0,1,40.5,20.25Z"/><path class="cls-2" d="M39.34,27A20.24,20.24,0,0,1,2.15,29.31a16.9,16.9,0,0,1-1-2.31Z"/><path class="cls-3" d="M20.25,20.25,6.75,27l-4.6,2.31a16.9,16.9,0,0,1-1-2.31,20.22,20.22,0,0,1,0-13.5,16.9,16.9,0,0,1,1-2.31l4.6,2.31Z"/><polygon class="cls-1" points="5.75 17.52 6.37 19.1 8 18.6 7.15 20.07 8.55 21.03 6.87 21.29 7 22.98 5.75 21.83 4.5 22.98 4.63 21.29 2.95 21.03 4.35 20.07 3.5 18.6 5.13 19.1 5.75 17.52"/></g></g></svg>
